static/images/icons/github.svg

<svg xmlns="http://www.w3.org/2000/svg" width="42" height="42" fill="none" viewBox="0 0 42 42"><linearGradient id="b" x1="8.5" x2="34.5" y1="7" y2="36" gradientUnits="userSpaceOnUse"><stop offset="0" stop-color="#fec976"/><stop offset=".5" stop-color="#ffea8d"/><stop offset="1" stop-color="#cade39"/></linearGradient><clipPath id="a"><path d="M0 0h42v42H0z"/></clipPath><g clip-path="url(#a)"><path fill="url(#b)" d="M21 42c11.598 0 21-9.402 21-21S32.598 0 21 0 0 9.402 0 21s9.402 21 21 21z"/><path fill="#0e1025" d="M21 7C13.265 7 7 13.265 7 21c0 6.195 4.008 11.428 9.572 13.283.7.122.963-.298.963-.666 0-.332-.018-1.434-.018-2.607-3.517.647-4.427-.858-4.707-1.645-.158-.403-.84-1.645-1.435-1.978-.49-.262-1.19-.91-.018-.927 1.103-.018 1.89 1.015 2.153 1.435 1.26 2.118 3.272 1.522 4.077 1.155.123-.91.49-1.522.893-1.873-3.115-.35-6.37-1.557-6.37-6.912 0-1.522.542-2.783 1.435-3.763-.14-.35-.63-1.784.14-3.71 0 0 1.172-.367 3.85 1.436 1.12-.315 2.31-.473 3.5-.473s2.38.158 3.5.472c2.677-1.82 3.85-1.434 3.85-1.434.77 1.925.28 3.36.14 3.71.892.98 1.435 2.222 1.435 3.762 0 5.372-3.273 6.563-6.388 6.912.508.438.945 1.278.945 2.59 0 1.873-.017 3.378-.017 3.85 0 .368.263.806.963.666A14.017 14.017 0 0 0 35 21c0-7.735-6.265-14-14-14z"/></g></svg>

<svg width="42" height="42" viewBox="0 0 42 42" fill="none" xmlns="http://www.w3.org/2000/svg">
<path d="M21 7C13.265 7 7 13.265 7 21C7 27.195 11.008 32.428 16.572 34.283C17.272 34.405 17.535 33.985 17.535 33.617C17.535 33.285 17.517 32.183 17.517 31.01C14 31.657 13.09 30.152 12.81 29.365C12.652 28.962 11.97 27.72 11.375 27.387C10.885 27.125 10.185 26.477 11.357 26.46C12.46 26.442 13.247 27.475 13.51 27.895C14.77 30.013 16.782 29.417 17.587 29.05C17.71 28.14 18.077 27.528 18.48 27.177C15.365 26.827 12.11 25.62 12.11 20.265C12.11 18.743 12.652 17.482 13.545 16.502C13.405 16.152 12.915 14.718 13.685 12.792C13.685 12.792 14.857 12.425 17.535 14.228C18.655 13.913 19.845 13.755 21.035 13.755C22.225 13.755 23.415 13.913 24.535 14.227C27.212 12.407 28.385 12.793 28.385 12.793C29.155 14.718 28.665 16.153 28.525 16.503C29.417 17.483 29.96 18.725 29.96 20.265C29.96 25.637 26.687 26.828 23.572 27.177C24.08 27.615 24.517 28.455 24.517 29.767C24.517 31.64 24.5 33.145 24.5 33.617C24.5 33.985 24.763 34.423 25.463 34.283C28.2427 33.3454 30.6582 31.5593 32.3691 29.1763C34.0801 26.7933 35.0003 23.9336 35 21C35 13.265 28.735 7 21 7Z" fill="white"/>
</svg>
